Papirus/16x16/devices/touchpad.svg

<?xml version="1.0" encoding="UTF-8" standalone="no"?>
<svg xmlns="http://www.w3.org/2000/svg" viewBox="0 0 16 16">
  <defs>
    <style type="text/css" id="current-color-scheme">
      .ColorScheme-Text {
        color:#5c616c;
      }
      </style>
  </defs>
  <path 
     style="fill:currentColor;opacity:1"
     class="ColorScheme-Text"
     d="M 2 2.0351562 C 2 2.0351562 1 2.0351562 1 3.0351562 L 1 13.035156 C 1 13.035156 1 14.035156 2 14.035156 L 14 14.035156 C 14 14.035156 15 14.035156 15 13.035156 L 15 3.0351562 C 15 2.0351562 14 2.0351562 14 2.0351562 L 2 2.0351562 z M 2 9 L 7 9 L 7 13 L 2 13 L 2 9 z M 9 9 L 14 9 L 14 13 L 9 13 L 9 9 z "
      />
</svg>

<?xml version="1.0" encoding="UTF-8" standalone="no"?>
<!--Created with Inkscape (http://www.inkscape.org/)-->
<svg id="svg7384" xmlns:rdf="http://www.w3.org/1999/02/22-rdf-syntax-ns#" style="enable-background:new" xmlns="http://www.w3.org/2000/svg" height="16" width="16" version="1.1" xmlns:cc="http://creativecommons.org/ns#" xmlns:dc="http://purl.org/dc/elements/1.1/">
 <metadata id="metadata90">
  <rdf:RDF>
   <cc:Work rdf:about="">
    <dc:format>image/svg+xml</dc:format>
    <dc:type rdf:resource="http://purl.org/dc/dcmitype/StillImage"/>
   </cc:Work>
  </rdf:RDF>
 </metadata>
 <defs id="defs7386">
  <filter id="filter7554" style="fill-interpolation-filters:sRGB">
   <feBlend id="feBlend7556" in2="BackgroundImage" mode="darken"/>
  </filter>
 </defs>
 <g id="layer10" filter="url(#filter7554)" transform="translate(-265 139.03)">
  <path id="path4150" opacity="1" fill="#5c616c" transform="translate(265 -139.03)" d="m2 2.0352s-1 0-1 1v9.9998s0 1 1 1h12s1 0 1-1v-9.9998c0-1-1-1-1-1h-12zm0 6.9648h5v4h-5v-4zm7 0h5v4h-5v-4z"/>
 </g>
</svg>
